packages/ui-icons/svg/Line/text-direction-rtl.svg

<svg viewBox="0 0 1920 1920" version="1.1" xmlns="http://www.w3.org/2000/svg">
    <path d="M188,1544.88673 L561.6325,1918.48769 L622.4025,1857.80864 L352.285,1587.71395 L1725.0175,1587.71395 L1725.0175,1501.97369 L352.285,1501.97369 L622.4025,1231.87899 L561.6325,1171.28577 L188,1544.88673 Z M755.598667,85.826087 L918.338667,85.826087 L918.338667,629.019391 L755.598667,629.019391 C605.8195,629.019391 483.936167,507.232174 483.936167,357.465652 C483.936167,207.613304 605.8195,85.826087 755.598667,85.826087 M755.598667,714.845478 L918.338667,714.845478 L918.338667,1255.20652 L1004.172,1255.20652 L1004.172,85.826087 L1229.82783,85.826087 L1229.82783,1255.20652 L1315.66117,1255.20652 L1315.66117,85.826087 L1481.40533,85.826087 L1481.40533,0 L755.598667,0 C558.525333,0 398.102833,160.32313 398.102833,357.465652 C398.102833,554.522348 558.525333,714.845478 755.598667,714.845478" stroke="none" stroke-width="1" fill-rule="evenodd"/>
</svg>

<svg viewBox="0 0 1920 1920" xmlns="http://www.w3.org/2000/svg">
    <path d="m188 1544.887 373.633 373.6 60.77-60.678-270.118-270.095h1372.732v-85.74H352.285l270.118-270.095-60.77-60.593L188 1544.886ZM755.599 85.827h162.74v543.192h-162.74c-149.78 0-271.663-121.787-271.663-271.553 0-149.853 121.883-271.64 271.663-271.64m0 629.02h162.74v540.36h85.833V85.827h225.656v1169.38h85.833V85.827h165.744V0H755.6C558.525 0 398.103 160.323 398.103 357.466c0 197.056 160.422 357.38 357.496 357.38" fill-rule="evenodd"/>
</svg>
